!!!id: BC045
!!!page: 57
!!!COM: Paroles et musique de E. JACQUES-DALCROZE
!!!LYR:
!!!PTL@@FR: Les 100 plus belles chansons
!!!OTL@@FR: C'est la belle Françoise
!!!PUB:La Bonne Chanson, inc.
!!!YEM: On ne peut reproduire, enregistrer ou diffuser en tout ou en partie le présent ouvrage, sous quelque procédé que ce soit, électronique, mécanique, photographique, sonore, magnétique ou autre, sans avoir obtenu au préalable l'autorisation écrite de l'éditrice.
!!!PDT: 2011
!!!SMA:2012 Bibliothèque nationale du Québec; Biblothèque nationale du Canada
!!!AGN-Laforte: Chanson strophique (avec refrain), 3:4(6), R(13+13)
!!!AGN-type: Amour?
!!!AGN-rime: monorime \e\
**kern	**text	**text	**text	**text	**text	**text	**text	**text	**text
*clefG2	*	*	*	*	*	*	*	*	*
*k[b-e-]	*	*	*	*	*	*	*	*	*
*D:	*	*	*	*	*	*	*	*	*
*M6/8	*	*	*	*	*	*	*	*	*
*	*vv:1	*vv:2	*vv:3	*vv:4	*vv:5	*vv:6	*vv:7	*vv:8	*vv:9
*	*pline:1	*pline:3	*pline:5	*pline:7	*pline:9	*pline:11	*pline:13	*pline:15	*pline:17
!!LO:TX:a:B:t=Moderato
{{8dd	C'est	Son	Il	Ah!	On	Ceux	Ve-	A-	Au
4dd	la	a-	la	qu'a'	m'a	qui	-nez	-dieu,	re-
8b-	bel-	-mant	trou-	vous	dit,	vous	m'y	bel-	-tour
=1	=1	=1	=1	=1	=1	=1	=1	=1	=1
4dd	-le	va	-va	donc,	hier	l'ont	re-	-le	de
8cc	Fran-	la	seu-	la	au	dit,	-con-	Fran-	la
8b-	-çoi-	voi-	-let-	bel-	soi-	bel-	-dui-	-çoi-	guer-
8a	-se,	-r(e),	-te,	-le,	-r(e),	-le,	-re,	-se,	-re,
*	*rp:a	*rp:ɑ	*rp:ɛ	*rp:ɛ	*rp:ɑ	*rp:ɛ	*rp:i	*rp:a	*rp:ɛ
*	*rf:az,ə	*rf:ɑʁ,ə	*rf:ɛt,ə	*rf:ɛl,ə	*rf:ɑʁ,ə	*rf:ɛl,ə	*rf:iʁ,ə	*rf:az,ə	*rf:ɛʁ,ə
*	*rs:b	*rs:c	*rs:d	*rs:e	*rs:c	*rs:e	*rs:f	*rs:b	*rs:g
*	*refrain	*refrain	*refrain	*refrain	*refrain	*refrain	*refrain	*refrain	*refrain
8b-	lon	lon	lon	lon	lon	lon	lon	lon	lon
=2	=2	=2	=2	=2	=2	=2	=2	=2	=2
4g}	gai,	gai,	gai,	gai,	gai,	gai,	gai,	gai,	gai,
*	*Xrefrain	*Xrefrain	*Xrefrain	*Xrefrain	*Xrefrain	*Xrefrain	*Xrefrain	*Xrefrain	*Xrefrain
*	*pline:1r	*pline:3r	*pline:5r	*pline:7r	*pline:9r	*pline:11r	*pline:13r	*pline:15r	*pline:17r
{8dd	C'est	Son	Il	Ah!	On	Ceux	Ve-	A-	Au
4dd	la	a-	la	qu'a'	m'a	qui	-nez	-dieu,	re-
8b-	bel-	-mant	trou-	vous	dit,	vous	m'y	bel-	-tour
!!LO:PB:g=original
=3	=3	=3	=3	=3	=3	=3	=3	=3	=3
4dd	-le	va	-va	donc,	hier	l'ont	re-	-le	de
8cc	Fran-	la	seu-	la	au	dit,	-con-	Fran-	la
(4b-	-çoi-	voi-	-let-	bel-	soi-	bel-	-dui-	-çoi-	guer-
8a)	.	.	.	.	.	.	.	.	.
=4	=4	=4	=4	=4	=4	=4	=4	=4	=4
4g}}	-se,	-r(e),	-te,	-le,	-re,	-le,	-re,	-se,	-re,
8r	.	.	.	.	.	.	.	.	.
*	*pline:2	*pline:4	*pline:6	*pline:8	*pline:10	*pline:12	*pline:14	*pline:16	*pline:18
{{4.b-	Qui	Bien	Sur	Qu'a'	Qu'à	Ont	Jusqu'-	Je	Si
=5	=5	=5	=5	=5	=5	=5	=5	=5	=5
4.f	veut	tard	son	vous	la	dit	-au	vous	j'y
!!!elision: v. 5: guerr' = guerre
8g	s'y	a-	lit,	à	guerr'	la	pied	é-	suis
8a	ma-	-près	à	tant	vous	vé-	du	-pou-	re-
8b-	-ri-	sou-	pleu-	pleu-	al-	-ri-	ro-	-se-	-spe-
=6	=6	=6	=6	=6	=6	=6	=6	=6	=6
8cc	-er,	-per,	-rer,	-rer,	-liez,	-té,	-cher,	-rai,	-cté,
*	*refrain	*refrain	*refrain	*refrain	*refrain	*refrain	*refrain	*refrain	*refrain
8b-	ma-	ma-	ma-	ma-	ma-	ma-	ma-	ma-	ma-
8cc	-lu-	-lu-	-lu-	-lu-	-lu-	-lu-	-lu-	-lu-	-lu-
4dd	-ron,	-ron,	-ron,	-ron,	-ron,	-ron,	-ron,	-ron,	-ron,
8cc	lu-	lu-	lu-	lu-	lu-	lu-	lu-	lu-	lu-
!!LO:PB:g=original
=7	=7	=7	=7	=7	=7	=7	=7	=7	=7
L(8b-	ret-	-ret-	-ret-	-ret-	-ret-	-ret-	-ret-	-ret-	-ret-
J8a)	.	.	.	.	.	.	.	.	.
8g}	-te,	-te,	-te,	-te,	-te,	-te,	-te,	-te,	-te,
*	*Xrefrain	*Xrefrain	*Xrefrain	*Xrefrain	*Xrefrain	*Xrefrain	*Xrefrain	*Xrefrain	*Xrefrain
*	*pline:2r	*pline:4r	*pline:6r	*pline:8r	*pline:10r	*pline:12r	*pline:14r	*pline:16r	*pline:18r
{4.b-	Qui	Bien	Sur	Qu'a'	Qu'à	Ont	Jusqu'-	Je	Si
=8	=8	=8	=8	=8	=8	=8	=8	=8	=8
4.f	veut	tard	son	vous	la	dit	-au	vous	j'y
8g	s'y	a-	lit,	à	guerr'	la	pied	é-	suis
8a	ma-	-près	à	tant	vous	vé-	du	-pou-	re-
8b-	-ri-	sou-	pleu-	pleu-	al-	-ri-	ro-	-se-	-spe-
=9	=9	=9	=9	=9	=9	=9	=9	=9	=9
8cc	-er,	-per,	-rer,	-rer,	-liez,	-té,	-cher,	-rai.	-cté,
*	*rp:e	*rp:e	*rp:e	*rp:e	*rp:e	*rp:e	*rp:e	*rp:e	*rp:e
*	*rf:je	*rf:pe	*rf:ʁe	*rf:ʁe	*rf:je	*rf:te	*rf:ʃe	*rf:ʁe	*rf:te
*	*rs:a1	*rs:a2	*rs:a3	*rs:a3	*rs:a1	*rs:a4	*rs:a5	*rs:a3	*rs:a4
*	*refrain	*refrain	*refrain	*refrain	*refrain	*refrain	*refrain	*refrain	*refrain
8b-	ma-	ma-	ma-	ma-	ma-	ma-	ma-	ma-	ma-
8cc	-lu-	-lu-	-lu-	-lu-	-lu-	-lu-	-lu-	-lu-	-lu-
4dd	-ron,	-ron,	-ron,	-ron,	-ron,	-ron,	-ron,	-ron,	-ron,
8b-	lu-	lu-	lu-	lu-	lu-	lu-	lu-	lu-	lu-
=10	=10	=10	=10	=10	=10	=10	=10	=10	=10
4g}}	-ré.	-ré.	-ré.	-ré.	-ré.	-ré.	-ré.	-ré.	-ré.
*	*Xrefrain	*Xrefrain	*Xrefrain	*Xrefrain	*Xrefrain	*Xrefrain	*Xrefrain	*Xrefrain	*Xrefrain
==	==	==	==	==	==	==	==	==	==
*-	*-	*-	*-	*-	*-	*-	*-	*-	*-
!!!EED: Isaac Howie
!!!EEV: 2025/June/24
